components/Common/Svg/svgs/productHunt.svg

<svg
  width="67"
  height="71"
  viewBox="0 0 67 71"
  fill="none"
  xmlns="http://www.w3.org/2000/svg"
>
  <g opacity="0.5">
    <path
      fill-rule="evenodd"
      clip-rule="evenodd"
      d="M5.19174 65.8852C5.19174 65.2686 4.71525 64.8933 4.09734 64.8933H2.44141V66.8669H4.09734C4.71525 66.8669 5.19174 66.4916 5.19174 65.8852ZM0.875 70.9999V63.5156H4.32009C5.92274 63.5156 6.79477 64.5955 6.79477 65.885C6.79477 67.1642 5.91147 68.244 4.32009 68.244H2.44384V70.9999H0.875V70.9999Z"
      fill="#171717"
    ></path>
    <path
      fill-rule="evenodd"
      clip-rule="evenodd"
      d="M7.75 71V65.5435H9.15181V66.2604C9.53915 65.7971 10.1909 65.4116 10.8539 65.4116V66.7778C10.7545 66.7563 10.6325 66.7451 10.4675 66.7451C10.0033 66.7451 9.38442 67.0099 9.15181 67.3515V71H7.75"
      fill="#171717"
    ></path>
    <path
      fill-rule="evenodd"
      clip-rule="evenodd"
      d="M15.5696 68.2003C15.5696 67.374 15.0839 66.6572 14.2006 66.6572C13.3265 66.6572 12.8408 67.374 12.8408 68.2003C12.8408 69.0378 13.3265 69.7546 14.2006 69.7546C15.0839 69.7546 15.5696 69.0378 15.5696 68.2003ZM11.3828 68.2002C11.3828 66.6899 12.4434 65.4116 14.1998 65.4116C15.9664 65.4116 17.0269 66.6899 17.0269 68.2002C17.0269 69.7106 15.9664 71 14.1998 71C12.4434 71 11.3828 69.7106 11.3828 68.2002V68.2002Z"
      fill="#171717"
    ></path>
    <path
      fill-rule="evenodd"
      clip-rule="evenodd"
      d="M21.7454 69.1482V67.2636C21.5138 66.9108 21.0055 66.6572 20.5413 66.6572C19.7359 66.6572 19.1836 67.2851 19.1836 68.2003C19.1836 69.1257 19.7359 69.7546 20.5413 69.7546C21.0055 69.7546 21.5138 69.501 21.7454 69.1482ZM21.747 70.9999V70.1839C21.3268 70.7136 20.753 70.9999 20.1013 70.9999C18.765 70.9999 17.7383 69.9855 17.7383 68.2001C17.7383 66.4699 18.7435 65.4115 20.1013 65.4115C20.7304 65.4115 21.3268 65.6753 21.747 66.2265V63.5156H23.1611V70.9999H21.747V70.9999Z"
      fill="#171717"
    ></path>
    <path
      fill-rule="evenodd"
      clip-rule="evenodd"
      d="M28.1594 71V70.1952C27.7946 70.592 27.1542 71 26.2822 71C25.1109 71 24.5586 70.3608 24.5586 69.3239V65.5435H25.9604V68.7738C25.9604 69.5121 26.3477 69.7545 26.9441 69.7545C27.4852 69.7545 27.9166 69.4569 28.1594 69.1481V65.5435H29.5623V71H28.1594"
      fill="#171717"
    ></path>
    <path
      fill-rule="evenodd"
      clip-rule="evenodd"
      d="M30.6172 68.2002C30.6172 66.5692 31.8089 65.4116 33.4444 65.4116C34.5377 65.4116 35.2007 65.8851 35.5543 66.3708L34.6371 67.2298C34.383 66.8555 33.9967 66.6571 33.511 66.6571C32.6605 66.6571 32.0641 67.2748 32.0641 68.2002C32.0641 69.1256 32.6605 69.7545 33.511 69.7545C33.9967 69.7545 34.383 69.5337 34.6371 69.1696L35.5543 70.0296C35.2007 70.5153 34.5377 71 33.4444 71C31.8089 71 30.6172 69.8425 30.6172 68.2002"
      fill="#171717"
    ></path>
    <path
      fill-rule="evenodd"
      clip-rule="evenodd"
      d="M36.7583 69.5336V66.7675H35.875V65.5435H36.7583V64.0884H38.1611V65.5435H39.2432V66.7675H38.1611V69.1594C38.1611 69.5009 38.3374 69.7545 38.6469 69.7545C38.8569 69.7545 39.0567 69.6768 39.1326 69.5889L39.4318 70.6585C39.2217 70.8456 38.8456 71 38.2605 71C37.2778 71 36.7583 70.4928 36.7583 69.5336"
      fill="#171717"
    ></path>
    <path
      fill-rule="evenodd"
      clip-rule="evenodd"
      d="M48.2274 70.9999V67.7706H44.7475V70.9999H43.1797V63.5156H44.7475V66.4034H48.2274V63.5156H49.8065V70.9999H48.2274"
      fill="#171717"
    ></path>
    <path
      fill-rule="evenodd"
      clip-rule="evenodd"
      d="M54.8264 71V70.1952C54.4626 70.592 53.8222 71 52.9501 71C51.7789 71 51.2266 70.3608 51.2266 69.3239V65.5435H52.6284V68.7738C52.6284 69.5121 53.0157 69.7545 53.6121 69.7545C54.1531 69.7545 54.5835 69.4569 54.8264 69.1481V65.5435H56.2302V71H54.8264"
      fill="#171717"
    ></path>
    <path
      fill-rule="evenodd"
      clip-rule="evenodd"
      d="M61.2248 71V67.649C61.2248 66.9107 60.8395 66.6571 60.2421 66.6571C59.6898 66.6571 59.2707 66.9659 59.0268 67.2748V71H57.625V65.5435H59.0268V66.2266C59.3691 65.8309 60.0321 65.4116 60.8938 65.4116C62.0753 65.4116 62.6389 66.0722 62.6389 67.1091V71H61.2248"
      fill="#171717"
    ></path>
    <path
      fill-rule="evenodd"
      clip-rule="evenodd"
      d="M64.313 69.5336V66.7675H63.4297V65.5435H64.313V64.0884H65.7158V65.5435H66.7979V66.7675H65.7158V69.1594C65.7158 69.5009 65.8921 69.7545 66.2015 69.7545C66.4106 69.7545 66.6104 69.6768 66.6883 69.5889L66.9854 70.6585C66.7764 70.8456 66.4003 71 65.8142 71C64.8315 71 64.313 70.4928 64.313 69.5336"
      fill="#171717"
    ></path>
    <path
      fill-rule="evenodd"
      clip-rule="evenodd"
      d="M37.5224 32.284H29.8842V40.3553H24.4922V13.4521H37.5224C42.7341 13.4521 46.958 17.6672 46.958 22.8681C46.958 28.0679 42.7341 32.284 37.5224 32.284ZM33.9269 0C19.0389 0 6.96875 12.045 6.96875 26.9031C6.96875 41.7613 19.0389 53.8063 33.9269 53.8063C48.816 53.8063 60.8861 41.7613 60.8861 26.9031C60.8861 12.045 48.816 0 33.9269 0V0Z"
      fill="#171717"
    ></path>
    <path
      fill-rule="evenodd"
      clip-rule="evenodd"
      d="M37.6316 19.3516H29.9258V26.3849H37.6316C39.8337 26.3849 41.5307 25.0494 41.5307 22.8877C41.5307 20.6871 39.8337 19.3516 37.6316 19.3516"
      fill="#171717"
    ></path>
  </g>
</svg>

<svg width="67" height="71" viewBox="0 0 67 71" fill="none" xmlns="http://www.w3.org/2000/svg"><g opacity=".5" fill-rule="evenodd" clip-rule="evenodd" fill="#171717"><path d="M5.192 65.885c0-.616-.477-.992-1.095-.992H2.441v1.974h1.656c.618 0 1.095-.375 1.095-.982ZM.875 71v-7.484H4.32c1.603 0 2.475 1.08 2.475 2.369 0 1.28-.884 2.359-2.475 2.359H2.444V71H.875ZM7.75 71v-5.457h1.402v.717c.387-.463 1.039-.848 1.702-.848v1.366a1.837 1.837 0 0 0-.386-.033c-.465 0-1.084.265-1.316.606V71H7.75M15.57 68.2c0-.826-.486-1.543-1.37-1.543-.873 0-1.36.717-1.36 1.543 0 .838.486 1.555 1.36 1.555.884 0 1.37-.717 1.37-1.555Zm-4.187 0c0-1.51 1.06-2.788 2.817-2.788 1.766 0 2.827 1.278 2.827 2.788 0 1.51-1.06 2.8-2.827 2.8-1.757 0-2.817-1.29-2.817-2.8ZM21.745 69.148v-1.884c-.231-.353-.74-.607-1.204-.607-.805 0-1.357.628-1.357 1.543 0 .926.552 1.555 1.357 1.555.465 0 .973-.254 1.204-.607ZM21.747 71v-.816c-.42.53-.994.816-1.646.816-1.336 0-2.363-1.014-2.363-2.8 0-1.73 1.006-2.788 2.363-2.788.63 0 1.226.263 1.646.814v-2.71h1.414V71h-1.414ZM28.16 71v-.805a2.54 2.54 0 0 1-1.878.805c-1.171 0-1.723-.64-1.723-1.676v-3.78h1.401v3.23c0 .738.388.98.984.98.541 0 .973-.297 1.215-.606v-3.605h1.403V71H28.16M30.617 68.2c0-1.63 1.192-2.788 2.827-2.788 1.094 0 1.757.473 2.11.959l-.917.859c-.254-.374-.64-.573-1.126-.573-.85 0-1.447.618-1.447 1.543 0 .926.596 1.554 1.447 1.554.486 0 .872-.22 1.126-.584l.917.86c-.353.485-1.016.97-2.11.97-1.635 0-2.827-1.157-2.827-2.8M36.758 69.534v-2.767h-.883v-1.224h.883v-1.455h1.403v1.456h1.082v1.224h-1.082v2.391c0 .342.176.595.486.595.21 0 .41-.077.486-.165l.299 1.07c-.21.187-.586.341-1.172.341-.982 0-1.502-.507-1.502-1.466M48.227 71v-3.23h-3.48V71H43.18v-7.484h1.568v2.887h3.48v-2.887h1.578V71h-1.579M54.826 71v-.805A2.536 2.536 0 0 1 52.95 71c-1.171 0-1.723-.64-1.723-1.676v-3.78h1.401v3.23c0 .738.388.98.984.98.541 0 .971-.297 1.214-.606v-3.605h1.404V71h-1.404M61.225 71v-3.351c0-.738-.386-.992-.983-.992-.552 0-.971.309-1.215.618V71h-1.402v-5.457h1.402v.684c.342-.396 1.005-.815 1.867-.815 1.181 0 1.745.66 1.745 1.697V71h-1.414M64.313 69.534v-2.767h-.883v-1.224h.883v-1.455h1.403v1.456h1.082v1.224h-1.082v2.391c0 .342.176.595.486.595.209 0 .408-.077.486-.165l.297 1.07c-.209.187-.585.341-1.17.341-.983 0-1.502-.507-1.502-1.466M37.522 32.284h-7.638v8.071h-5.392V13.452h13.03c5.212 0 9.436 4.215 9.436 9.416 0 5.2-4.224 9.416-9.436 9.416ZM33.927 0C19.039 0 6.969 12.045 6.969 26.903c0 14.858 12.07 26.903 26.958 26.903 14.889 0 26.96-12.045 26.96-26.903C60.886 12.045 48.815 0 33.926 0Z"/><path d="M37.632 19.352h-7.706v7.033h7.706c2.202 0 3.899-1.336 3.899-3.497 0-2.2-1.697-3.536-3.9-3.536"/></g></svg>
